X: 042201
T: Donald Bran
S: Fitzmaurice Collection
Z: BB
L: 1/8
M: 2/4
R: hornpipe
Q: 1/4 = 80
K: A
A>B cA | B/d/c/d/ B/A/G/F/ | A>B cA | Bc d2 |
A>B cA | B/d/c/d/ B/A/G/F/ | A>B B/A/G/F/ | EF A2 :|
AD D>F | EE EF/G/ | AD D>F | EF A>B |
AD D>F | EE E>c | d/c/d/B/ B/A/G/F/ | EF A2 :|
